src/components/Icon/svg-icon/main/view.svg

<svg xmlns="http://www.w3.org/2000/svg" width="24" height="24"><path fill="#677078" d="M12 4.5C7 4.5 2.73 7.61 1 12c1.73 4.39 6 7.5 11 7.5s9.27-3.11 11-7.5c-1.73-4.39-6-7.5-11-7.5zM12 17c-2.76 0-5-2.24-5-5s2.24-5 5-5 5 2.24 5 5-2.24 5-5 5zm0-8c-1.66 0-3 1.34-3 3s1.34 3 3 3 3-1.34 3-3-1.34-3-3-3z"/></svg>

<svg xmlns="http://www.w3.org/2000/svg" width="24" height="24" viewBox="0 0 24 24">
  <path fill="#677078" d="M12,4.5 C7,4.5 2.73,7.61 1,12 C2.73,16.39 7,19.5 12,19.5 C17,19.5 21.27,16.39 23,12 C21.27,7.61 17,4.5 12,4.5 Z M12,17 C9.24,17 7,14.76 7,12 C7,9.24 9.24,7 12,7 C14.76,7 17,9.24 17,12 C17,14.76 14.76,17 12,17 Z M12,9 C10.34,9 9,10.34 9,12 C9,13.66 10.34,15 12,15 C13.66,15 15,13.66 15,12 C15,10.34 13.66,9 12,9 Z"/>
</svg>
